svgs/duotone/chart-mixed.svg

<svg xmlns="http://www.w3.org/2000/svg" viewBox="0 0 576 512"><!-- Font Awesome Pro 6.0.0-alpha2 by @fontawesome - https://fontawesome.com License - https://fontawesome.com/license (Commercial License) --><defs><style>.fa-secondary{opacity:.4}</style></defs><path d="M576 48C576 74.5 554.5 96 528 96C521.875 96 516 94.75 510.625 92.625L415.25 168.875C415.625 171.25 416 173.625 416 176C416 202.5 394.5 224 368 224S320 202.5 320 176C320 173.625 320.375 171.25 320.75 168.875L225.375 92.625C220 94.75 214.125 96 208 96C203.75 96 199.625 95.25 195.75 94.25L94.25 195.75C95.25 199.625 96 203.75 96 208C96 234.5 74.5 256 48 256S0 234.5 0 208S21.5 160 48 160C52.25 160 56.375 160.75 60.25 161.75L161.75 60.25C160.75 56.375 160 52.25 160 48C160 21.5 181.5 0 208 0S256 21.5 256 48C256 50.375 255.625 52.75 255.25 55.125L350.625 131.375C356 129.25 361.875 128 368 128S380 129.25 385.375 131.375L480.75 55.125C480.375 52.75 480 50.375 480 48C480 21.5 501.5 0 528 0S576 21.5 576 48Z" class="fa-secondary"/><path d="M544 192H512C494.327 192 480 206.327 480 224V480C480 497.673 494.327 512 512 512H544C561.673 512 576 497.673 576 480V224C576 206.327 561.673 192 544 192ZM224 192H192C174.327 192 160 206.327 160 224V480C160 497.673 174.327 512 192 512H224C241.673 512 256 497.673 256 480V224C256 206.327 241.673 192 224 192ZM64 352H32C14.327 352 0 366.327 0 384V480C0 497.673 14.327 512 32 512H64C81.673 512 96 497.673 96 480V384C96 366.327 81.673 352 64 352ZM384 320H352C334.327 320 320 334.327 320 352V480C320 497.673 334.327 512 352 512H384C401.673 512 416 497.673 416 480V352C416 334.327 401.673 320 384 320Z" class="fa-primary"/></svg>

<svg xmlns="http://www.w3.org/2000/svg" viewBox="0 0 576 512"><!--! Font Awesome Pro 6.0.0-alpha3 by @fontawesome - https://fontawesome.com License - https://fontawesome.com/license (Commercial License) --><defs><style>.fa-secondary{opacity:.4}</style></defs><path class="fa-primary" d="M544 192h-32c-17.67 0-32 14.33-32 32v256c0 17.67 14.33 32 32 32h32c17.67 0 32-14.33 32-32V224C576 206.3 561.7 192 544 192zM224 192H192C174.3 192 160 206.3 160 224v256c0 17.67 14.33 32 32 32h32c17.67 0 32-14.33 32-32V224C256 206.3 241.7 192 224 192zM64 352H32c-17.67 0-32 14.33-32 32v96c0 17.67 14.33 32 32 32h32c17.67 0 32-14.33 32-32v-96C96 366.3 81.67 352 64 352zM384 320h-32c-17.67 0-32 14.33-32 32v128c0 17.67 14.33 32 32 32h32c17.67 0 32-14.33 32-32v-128C416 334.3 401.7 320 384 320z"/><path class="fa-secondary" d="M576 48C576 74.5 554.5 96 528 96c-6.125 0-12-1.25-17.38-3.375l-95.38 76.25C415.6 171.3 416 173.6 416 176C416 202.5 394.5 224 368 224S320 202.5 320 176c0-2.375 .375-4.75 .75-7.125L225.4 92.63C220 94.75 214.1 96 208 96C203.8 96 199.6 95.25 195.8 94.25L94.25 195.8C95.25 199.6 96 203.8 96 208C96 234.5 74.5 256 48 256S0 234.5 0 208S21.5 160 48 160c4.25 0 8.375 .75 12.25 1.75l101.5-101.5C160.8 56.37 160 52.25 160 48C160 21.5 181.5 0 208 0S256 21.5 256 48c0 2.375-.375 4.75-.75 7.125l95.38 76.25C356 129.3 361.9 128 368 128s12 1.25 17.38 3.375l95.38-76.25C480.4 52.75 480 50.38 480 48C480 21.5 501.5 0 528 0S576 21.5 576 48z"/></svg>
